images/logo10.svg

<?xml version="1.0" encoding="UTF-8" standalone="no"?>
<svg width="150px" height="60px" viewBox="0 0 150 60" version="1.1" xmlns="http://www.w3.org/2000/svg" xmlns:xlink="http://www.w3.org/1999/xlink" xmlns:sketch="http://www.bohemiancoding.com/sketch/ns">
    <!-- Generator: Sketch 3.3.3 (12081) - http://www.bohemiancoding.com/sketch -->
    <title>logo7</title>
    <desc>Created with Sketch.</desc>
    <defs></defs>
    <g id="Page-1" stroke="none" stroke-width="1" fill="none" fill-rule="evenodd" sketch:type="MSPage">
        <g id="logo7" sketch:type="MSArtboardGroup" fill="#FFFFFF">
            <path d="M15.5,45 C6.94,45 0,38.06 0,29.5 C0,20.94 6.94,14 15.5,14 C24.06,14 31,20.94 31,29.5 C31,38.06 24.06,45 15.5,45 L15.5,45 Z M27.125,29.5 C27.125,28.176 26.893,26.91 26.486,25.724 L21.887,30.746 C21.645,31.015 21.38,31.253 21.09,31.461 C20.8,31.668 20.498,31.849 20.185,32.004 C20.438,32.181 20.658,32.385 20.846,32.618 C21.033,32.851 21.199,33.118 21.343,33.418 L23.53,37.893 C25.741,35.776 27.125,32.802 27.125,29.5 L27.125,29.5 Z M18.842,40.632 C18.763,40.539 18.687,40.44 18.628,40.316 L16.02,34.614 C15.888,34.356 15.746,34.187 15.595,34.109 C15.444,34.032 15.2,33.993 14.862,33.993 L14.282,33.993 L13.299,40.91 C14.012,41.047 14.747,41.125 15.5,41.125 C16.663,41.125 17.783,40.949 18.842,40.632 L18.842,40.632 Z M3.875,29.5 C3.875,33.113 5.523,36.34 8.108,38.472 L10.924,18.813 C6.779,20.59 3.875,24.705 3.875,29.5 L3.875,29.5 Z M16.591,17.93 L14.735,30.901 L15.115,30.901 C15.429,30.901 15.682,30.86 15.876,30.777 C16.069,30.694 16.262,30.544 16.455,30.326 L20.33,25.79 C20.559,25.521 20.812,25.324 21.09,25.2 C21.368,25.075 21.706,25.013 22.104,25.013 L26.225,25.013 C24.603,21.141 20.946,18.336 16.591,17.93 L16.591,17.93 Z" id="Shape" sketch:type="MSShapeGroup"></path>
            <path d="M133.460938,27.239132 C133.860385,27.4724088 134.314156,27.6737299 134.822252,27.8430953 C135.330349,28.0140585 135.849629,28.189815 136.381692,28.3735605 C136.915353,28.5557081 137.434633,28.7618226 137.94273,28.9903061 C138.449228,29.2187896 138.902999,29.5063911 139.304044,29.8547086 C139.705088,30.2030261 140.026243,30.6312329 140.269107,31.1377313 C140.513568,31.6442296 140.635,32.2673664 140.635,33.0055438 C140.635,33.7868614 140.502384,34.5186477 140.238749,35.2040981 C139.975114,35.8895486 139.58845,36.4839252 139.081951,36.9904235 C138.573855,37.4969219 137.950719,37.8963685 137.212541,38.1871657 C136.472766,38.476365 135.633928,38.6217636 134.692832,38.6217636 C133.545621,38.6217636 132.499071,38.4124536 131.553181,37.9938335 C130.608889,37.5736156 129.802007,37.0079992 129.134132,36.2937886 L129.827572,35.1481756 C129.893081,35.0571018 129.97297,34.980408 130.068837,34.9180943 C130.163107,34.8557806 130.268561,34.8238249 130.383601,34.8238249 C130.55776,34.8238249 130.755886,34.9180943 130.977978,35.1050353 C131.201668,35.2903786 131.479683,35.4964931 131.81362,35.7201832 C132.147558,35.9454711 132.551798,36.1499878 133.027938,36.3369288 C133.502481,36.5238698 134.080879,36.6181392 134.76633,36.6181392 C135.33674,36.6181392 135.843238,36.5382499 136.28902,36.380069 C136.734803,36.223486 137.113478,36.0013936 137.421851,35.713792 C137.731822,35.4277882 137.968294,35.0858619 138.134464,34.6864153 C138.299036,34.2885664 138.382121,33.8443817 138.382121,33.3538612 C138.382121,32.8154072 138.260689,32.3728203 138.016228,32.0276984 C137.773364,31.6841743 137.453807,31.3949749 137.057556,31.1632958 C136.661305,30.930019 136.209131,30.7334912 135.701035,30.570517 C135.194537,30.4091406 134.673658,30.2429708 134.141595,30.0736054 C133.609532,29.9026422 133.088654,29.7061145 132.582156,29.4808266 C132.074059,29.2571364 131.621886,28.9663393 131.225635,28.6100329 C130.829384,28.2521287 130.509826,27.8063462 130.266963,27.2710877 C130.022501,26.7358292 129.90107,26.0727478 129.90107,25.285039 C129.90107,24.6539133 130.022501,24.0435588 130.266963,23.4539756 C130.509826,22.8643923 130.862937,22.3419161 131.324698,21.8849491 C131.786458,21.4279822 132.358465,21.062089 133.039123,20.7888675 C133.71978,20.5140482 134.502695,20.3782364 135.386271,20.3782364 C136.376899,20.3782364 137.279648,20.5364172 138.097715,20.8511812 C138.914184,21.1659452 139.628394,21.6229121 140.238749,22.2204843 L139.657155,23.3660973 C139.582059,23.4907246 139.503767,23.5849941 139.42228,23.6473077 C139.339195,23.7096214 139.232143,23.7399794 139.099527,23.7399794 C138.958922,23.7399794 138.795948,23.6696767 138.610604,23.5290715 C138.425261,23.3868685 138.190387,23.2318832 137.904383,23.0609201 C137.619977,22.8915547 137.27805,22.7365694 136.877006,22.5943664 C136.477559,22.4537611 135.991832,22.3834585 135.42302,22.3834585 C134.886164,22.3834585 134.411621,22.4553589 133.999392,22.6007575 C133.585566,22.7461561 133.242041,22.9426838 132.965624,23.1919386 C132.689207,23.4411933 132.479897,23.7335882 132.339292,24.0707212 C132.200285,24.4062564 132.129982,24.7705517 132.129982,25.1604116 C132.129982,25.658921 132.251414,26.07115 132.494277,26.3986962 C132.738739,26.7278403 133.059894,27.0074529 133.460938,27.239132 L133.460938,27.239132 Z M125.951341,38.2606639 C125.820323,38.1536122 125.72126,38.0162025 125.654153,37.8500327 L123.99565,33.5408023 L116.035478,33.5408023 L114.375377,37.8500327 C114.317857,38.0002246 114.218794,38.1328409 114.078189,38.2494794 C113.939182,38.36452 113.765023,38.4236381 113.558908,38.4236381 L111.70228,38.4236381 L118.796453,20.5763619 L121.234675,20.5763619 L128.328848,38.4236381 L126.47222,38.4236381 C126.256519,38.4236381 126.083958,38.3693133 125.951341,38.2606639 L125.951341,38.2606639 Z M120.541236,24.5372749 C120.360686,24.0882968 120.181734,23.5290715 120.009173,22.8564034 C119.918099,23.1967319 119.830221,23.5098981 119.742343,23.7959019 C119.656062,24.0835035 119.571379,24.334356 119.489892,24.5500572 L116.703352,31.7976171 L123.327776,31.7976171 L120.541236,24.5372749 L120.541236,24.5372749 Z M107.022364,38.4236381 L104.632075,38.4236381 L104.632075,31.3246723 L98.132279,20.5763619 L100.236564,20.5763619 C100.452265,20.5763619 100.62163,20.6306867 100.74466,20.7393361 C100.869287,20.8463878 100.976339,20.9806019 101.065815,21.137185 L105.127389,28.0747744 C105.291961,28.3655715 105.430968,28.638793 105.542813,28.8960367 C105.65306,29.1532803 105.755319,29.4073284 105.844795,29.6565831 C105.935869,29.3993394 106.034931,29.140498 106.141983,28.8832544 C106.249035,28.6260107 106.386444,28.3559848 106.551017,28.0747744 L110.599808,21.137185 C110.673306,21.0045687 110.775564,20.8783436 110.903387,20.7569118 C111.03121,20.6370778 111.19738,20.5763619 111.405092,20.5763619 L113.533344,20.5763619 L107.022364,31.3246723 L107.022364,38.4236381 L107.022364,38.4236381 Z M100.163066,38.4236381 L90.0842279,38.4236381 L90.0842279,20.5763619 L92.487299,20.5763619 L92.487299,36.3928513 L100.163066,36.3928513 L100.163066,38.4236381 L100.163066,38.4236381 Z M77.3578578,20.5763619 L79.759331,20.5763619 L79.759331,36.3928513 L87.4350978,36.3928513 L87.4350978,38.4236381 L77.3578578,38.4236381 L77.3578578,20.5763619 L77.3578578,20.5763619 Z M72.7402545,38.2606639 C72.6076383,38.1536122 72.5085755,38.0162025 72.4430662,37.8500327 L70.7845638,33.5408023 L62.8227932,33.5408023 L61.1642907,37.8500327 C61.1067704,38.0002246 61.0077076,38.1328409 60.8671024,38.2494794 C60.7264972,38.36452 60.5539362,38.4236381 60.3478218,38.4236381 L58.489596,38.4236381 L65.5837684,20.5763619 L68.0235885,20.5763619 L75.117761,38.4236381 L73.2595352,38.4236381 C73.0454318,38.4236381 72.871273,38.3693133 72.7402545,38.2606639 L72.7402545,38.2606639 Z M67.3301492,24.5372749 C67.1480015,24.0882968 66.9706472,23.5290715 66.7980862,22.8564034 C66.7070124,23.1967319 66.6175363,23.5098981 66.5312559,23.7959019 C66.4449754,24.0835035 66.3602927,24.334356 66.2772078,24.5500572 L63.4922658,31.7976171 L70.1150912,31.7976171 L67.3301492,24.5372749 L67.3301492,24.5372749 Z M51.0119547,29.9665537 L58.0693781,38.4236381 L55.98906,38.4236381 C55.8324769,38.4236381 55.6998606,38.4108558 55.5928089,38.3852912 C55.4857572,38.3613244 55.3930856,38.3277709 55.314794,38.2862284 C55.2365025,38.244686 55.1630043,38.1903612 55.097495,38.124852 C55.0319858,38.057745 54.9648788,37.9874424 54.8993695,37.9123464 L48.7718579,30.8261629 C48.6807841,30.7271001 48.5961014,30.6424174 48.5178099,30.570517 C48.4395183,30.5002144 48.3484445,30.4410963 48.2445884,30.3899671 C48.14233,30.3404357 48.022496,30.3052844 47.8866842,30.2845132 C47.7492745,30.263742 47.5831047,30.2541553 47.3849792,30.2541553 L46.2952887,30.2541553 L46.2952887,38.4236381 L43.905,38.4236381 L43.905,20.5763619 L46.2952887,20.5763619 L46.2952887,28.3975273 L47.1996359,28.3975273 C47.5128021,28.3975273 47.7620568,28.3591804 47.9474001,28.279291 C48.1343411,28.2009995 48.3084998,28.0667854 48.4746696,27.875051 L54.3800889,21.1499673 C54.5606388,20.942255 54.7363953,20.7952587 54.9057607,20.7073804 C55.075126,20.6210999 55.2908272,20.5763619 55.5560598,20.5763619 L57.5980311,20.5763619 L50.8393938,28.2617154 C50.6652351,28.451852 50.5022608,28.6132284 50.3504711,28.7474425 C50.1970836,28.8800588 50.0341093,28.9871105 49.8615484,29.0701954 C50.0916297,29.1452914 50.2945486,29.2571364 50.4671095,29.4073284 C50.6412683,29.5559225 50.8218181,29.7428636 51.0119547,29.9665537 L51.0119547,29.9665537 Z" id="Shape" sketch:type="MSShapeGroup"></path>
        </g>
    </g>
</svg>

<svg width="150" height="60" xmlns="http://www.w3.org/2000/svg"><g id="Page-1" stroke="none" stroke-width="1" fill="none" fill-rule="evenodd"><g id="logo7" fill="#FFF"><path d="M15.5 45C6.94 45 0 38.06 0 29.5 0 20.94 6.94 14 15.5 14 24.06 14 31 20.94 31 29.5 31 38.06 24.06 45 15.5 45zm11.625-15.5a11.6 11.6 0 00-.639-3.776l-4.599 5.022a4.948 4.948 0 01-.797.715 6.59 6.59 0 01-.905.543c.253.177.473.381.661.614.187.233.353.5.497.8l2.187 4.475a11.585 11.585 0 003.595-8.393zm-8.283 11.132a1.436 1.436 0 01-.214-.316l-2.608-5.702c-.132-.258-.274-.427-.425-.505-.151-.077-.395-.116-.733-.116h-.58l-.983 6.917a11.65 11.65 0 002.201.215 11.63 11.63 0 003.342-.493zM3.875 29.5a11.6 11.6 0 004.233 8.972l2.816-19.659C6.779 20.59 3.875 24.705 3.875 29.5zm12.716-11.57l-1.856 12.971h.38c.314 0 .567-.041.761-.124.193-.083.386-.233.579-.451l3.875-4.536c.229-.269.482-.466.76-.59.278-.125.616-.187 1.014-.187h4.121a11.63 11.63 0 00-9.634-7.083zm116.869 9.31c.4.232.854.434 1.362.603.508.171 1.028.347 1.56.53a17.9 17.9 0 011.56.617c.507.229.961.516 1.362.865.401.348.722.776.965 1.283.245.506.366 1.13.366 1.868 0 .78-.133 1.513-.396 2.198a5.07 5.07 0 01-1.157 1.786 5.426 5.426 0 01-1.87 1.197c-.74.29-1.578.435-2.52.435-1.146 0-2.193-.21-3.139-.628a7.368 7.368 0 01-2.419-1.7l.694-1.146a.895.895 0 01.24-.23.56.56 0 01.316-.094c.174 0 .372.094.594.281.224.185.502.391.836.615.334.225.738.43 1.214.617.474.187 1.053.281 1.738.281.57 0 1.077-.08 1.523-.238a3.185 3.185 0 001.133-.666c.31-.286.546-.628.712-1.028.165-.397.248-.842.248-1.332 0-.539-.121-.981-.366-1.326a3.023 3.023 0 00-.958-.865 6.7 6.7 0 00-1.357-.592l-1.56-.497a15.509 15.509 0 01-1.559-.593 5.067 5.067 0 01-1.356-.871 4.006 4.006 0 01-.959-1.339c-.244-.535-.366-1.198-.366-1.986 0-.631.122-1.241.366-1.831a4.717 4.717 0 011.058-1.57c.461-.456 1.033-.822 1.714-1.095.68-.275 1.464-.41 2.347-.41.99 0 1.894.157 2.712.472.816.315 1.53.772 2.14 1.37l-.58 1.145a.998.998 0 01-.236.281.522.522 0 01-.322.093c-.141 0-.304-.07-.49-.21a7.509 7.509 0 00-.706-.47 5.807 5.807 0 00-1.027-.466c-.4-.14-.885-.21-1.454-.21-.537 0-1.011.071-1.424.217a3.01 3.01 0 00-1.033.59c-.277.25-.486.543-.627.88-.139.335-.209.7-.209 1.09 0 .498.121.91.364 1.238.245.329.566.608.967.84zm-7.509 11.02a1.007 1.007 0 01-.297-.41l-1.658-4.31h-7.96l-1.66 4.31a.968.968 0 01-.298.4.79.79 0 01-.52.174h-1.856l7.094-17.848h2.439l7.094 17.848h-1.857a.795.795 0 01-.52-.163zm-5.41-13.723c-.18-.449-.36-1.008-.532-1.68-.09.34-.179.653-.267.939-.086.288-.17.538-.252.754l-2.787 7.248h6.625l-2.787-7.26zm-13.519 13.887h-2.39v-7.1l-6.5-10.748h2.105c.215 0 .385.055.508.163a1.5 1.5 0 01.32.398l4.062 6.938c.165.29.304.564.416.821.11.257.212.511.302.76.09-.257.19-.516.297-.773a6.68 6.68 0 01.409-.808l4.049-6.938c.073-.132.176-.259.303-.38a.703.703 0 01.502-.18h2.128l-6.51 10.748v7.099zm-6.859 0H90.084V20.576h2.403v15.817h7.676v2.03zM77.358 20.576h2.401v15.817h7.676v2.03H77.358V20.577zM72.74 38.261a.979.979 0 01-.297-.411l-1.658-4.31h-7.962l-1.659 4.31a.968.968 0 01-.297.4.793.793 0 01-.52.174H58.49l7.094-17.848h2.44l7.094 17.848H73.26c-.215 0-.389-.055-.52-.163zm-5.41-13.724a13.425 13.425 0 01-.532-1.68c-.091.34-.18.653-.267.939-.086.288-.17.538-.254.754l-2.785 7.248h6.623l-2.785-7.26zm-16.318 5.43l7.057 8.457h-2.08a1.74 1.74 0 01-.396-.039 1.11 1.11 0 01-.278-.099.914.914 0 01-.218-.161 5.165 5.165 0 01-.198-.213l-6.127-7.086a4.283 4.283 0 00-.254-.255 1.193 1.193 0 00-.631-.286 3.429 3.429 0 00-.502-.03h-1.09v8.169h-2.39V20.576h2.39v7.822h.905c.313 0 .562-.039.747-.119.187-.078.361-.212.528-.404l5.905-6.725c.18-.208.356-.355.526-.443.17-.086.385-.13.65-.13h2.042l-6.759 7.685c-.174.19-.337.351-.489.485-.153.133-.316.24-.488.323.23.075.433.187.605.337.174.149.355.336.545.56z" id="Shape"/></g></g></svg>
